storage/app/icons/phosphoricons/regular/circles-four.svg

<svg xmlns="http://www.w3.org/2000/svg" fill="currentColor" viewBox="0 0 256 256"><path d="M80 40a40 40 0 1 0 40 40 40 40 0 0 0-40-40m0 64a24 24 0 1 1 24-24 24 24 0 0 1-24 24m96 16a40 40 0 1 0-40-40 40 40 0 0 0 40 40m0-64a24 24 0 1 1-24 24 24 24 0 0 1 24-24m-96 80a40 40 0 1 0 40 40 40 40 0 0 0-40-40m0 64a24 24 0 1 1 24-24 24 24 0 0 1-24 24m96-64a40 40 0 1 0 40 40 40 40 0 0 0-40-40m0 64a24 24 0 1 1 24-24 24 24 0 0 1-24 24"/></svg>

<svg xmlns="http://www.w3.org/2000/svg" viewBox="0 0 256 256" fill="currentColor"><path d="M80,40a40,40,0,1,0,40,40A40,40,0,0,0,80,40Zm0,64a24,24,0,1,1,24-24A24,24,0,0,1,80,104Zm96,16a40,40,0,1,0-40-40A40,40,0,0,0,176,120Zm0-64a24,24,0,1,1-24,24A24,24,0,0,1,176,56ZM80,136a40,40,0,1,0,40,40A40,40,0,0,0,80,136Zm0,64a24,24,0,1,1,24-24A24,24,0,0,1,80,200Zm96-64a40,40,0,1,0,40,40A40,40,0,0,0,176,136Zm0,64a24,24,0,1,1,24-24A24,24,0,0,1,176,200Z"/></svg>
